src/ui/static/img/marketing.svg

<svg id="Layer_1" enable-background="new 0 0 511.926 511.926" height="512" viewBox="0 0 511.926 511.926" width="512" xmlns="http://www.w3.org/2000/svg"><path d="m237.302 269.001c8.026 5.8 17.895 9.22 28.566 9.22h91.28v44.26l57.862-44.26h24.962c26.909 0 48.723-21.747 48.723-48.574v-173.573c0-26.827-21.814-48.574-48.723-48.574h-174.104c-26.909 0-48.723 21.747-48.723 48.574v212.927z" fill="#f7f3f1"/><path d="m439.972 7.5h-41.732c26.909 0 48.723 21.748 48.723 48.574v173.573c0 26.827-21.814 48.574-48.723 48.574h-24.962l-16.13 12.338v31.922l57.862-44.26h24.962c26.909 0 48.723-21.747 48.723-48.574v-173.573c.001-26.826-21.813-48.574-48.723-48.574z" fill="#ebe1dc"/><path d="m315.376 207.023 5.022 4.065c7.962 6.445 17.896 9.962 28.139 9.962h71.292c6.758 0 12.2-5.638 11.878-12.467-.301-6.396.014-64.645.014-71.212s-5.324-11.892-11.892-11.892l-48.343-.146 5.919-14.018c6.15-14.566 5.156-31.168-2.689-44.896-2.218-3.882-7.209-5.156-11.017-2.813-2.34 1.44-3.766 3.991-3.766 6.739 0 12.571-4.59 24.709-12.907 34.135l-30.826 34.881h-11.238v67.661h10.414z" fill="#ffd36c"/><path d="m310.564 217.75h-32.549c-2.151 0-3.896-1.744-3.896-3.896v-82.974c0-2.152 1.744-3.896 3.896-3.896h32.549c2.152 0 3.896 1.744 3.896 3.896v82.974c-.001 2.151-1.745 3.896-3.896 3.896z" fill="#8ee6f3"/><path d="m237.372 355.987v-175.182c0-21.155-17.202-38.305-38.423-38.305h-137.296c-21.22 0-38.423 17.15-38.423 38.305v136.877c0 21.155 17.202 38.305 38.423 38.305h75.425v35.23l45.629-35.23z" fill="#4ed5ea"/><path d="m198.95 142.5h-54.409c21.22 0 38.423 17.15 38.423 38.305v175.182h54.409v-175.182c-.001-21.155-17.203-38.305-38.423-38.305z" fill="#62a6fd"/><path d="m311.697 327.998h-97.432c-15.059 0-27.267 12.17-27.267 27.183v97.134c0 15.013 12.208 27.183 27.267 27.183h53.525v25.002l32.381-25.001h11.526c15.059 0 27.267-12.17 27.267-27.183v-97.134c-.001-15.013-12.209-27.184-27.267-27.184z" fill="#fa9084"/><path d="m311.697 327.998h-42c15.059 0 27.267 12.17 27.267 27.183v97.135c0 15.013-12.208 27.183-27.267 27.183h-1.907v25.001l32.381-25.001h11.526c15.059 0 27.267-12.17 27.267-27.183v-97.135c-.001-15.012-12.208-27.183-27.267-27.183z" fill="#ff6cb5"/><path d="m262.98 436.753c23.446-12.429 35.593-23.005 35.593-39.389 0-22.599-27.684-28.249-35.593-11.299-9.04-17.514-35.593-11.299-35.593 11.299 0 16.384 12.147 26.959 35.593 39.389z" fill="#f7f3f1"/><path d="m439.973 0h-22.01c-9.675 0-9.675 15 0 15h22.01c22.73 0 41.223 18.426 41.223 41.074v173.572c0 22.649-18.492 41.075-41.223 41.075h-24.963c-1.647 0-3.248.542-4.557 1.543l-45.806 35.038v-29.081c0-4.142-3.357-7.5-7.5-7.5h-91.28c-7.475 0-14.659-1.973-20.995-5.724v-84.192c0-15.77-8.032-29.703-20.229-37.946v-86.785c0-22.648 18.493-41.074 41.224-41.074h105.096c9.674 0 9.674-15 0-15h-105.096c-31.002 0-56.224 25.155-56.224 56.074v80.193c-3.434-.82-7.012-1.267-10.694-1.267h-137.296c-25.321 0-45.922 20.548-45.922 45.805v16.195c0 9.674 15 9.674 15 0v-16.195c0-16.986 13.871-30.805 30.922-30.805h137.297c17.051 0 30.923 13.819 30.923 30.805v87.178c-.09.662-.086 1.329 0 1.986v47.712c0 .943-.057 1.882-.142 2.816h-15.467c-17.043 0-31.251 12.301-34.197 28.468-.682.257-1.337.616-1.944 1.084l-33.545 25.901v-19.964c0-4.142-3.357-7.5-7.5-7.5h-75.425c-17.051 0-30.922-13.819-30.922-30.805v-75.681c0-9.674-15-9.674-15 0v75.682c0 25.257 20.601 45.805 45.922 45.805h67.926v27.73c0 6.016 7.305 9.625 12.084 5.937l37.835-29.213v84.375c0 19.125 15.597 34.683 34.767 34.683h46.025v17.501c0 6.014 7.305 9.627 12.083 5.937l30.356-23.438h8.968c19.17 0 34.767-15.559 34.767-34.683v-13.316c0-9.674-15-9.674-15 0v13.316c0 10.854-8.867 19.683-19.767 19.683h-11.527c-1.659 0-3.271.55-4.583 1.563l-20.298 15.671v-9.735c0-4.142-3.357-7.5-7.5-7.5h-53.525c-10.899 0-19.767-8.83-19.767-19.683v-97.134c0-10.854 8.867-19.683 19.767-19.683h97.433c10.899 0 19.767 8.83 19.767 19.683v36.819c0 9.674 15 9.674 15 0v-36.818c0-19.125-15.597-34.683-34.767-34.683h-66.91c.057-.937.086-38.818.086-38.818 6.613 2.659 13.703 4.041 20.995 4.041h83.78v36.76c0 6.001 7.274 9.614 12.057 5.957l55.846-42.717h22.423c31.001 0 56.223-25.155 56.223-56.075v-173.573c-.001-30.919-25.223-56.074-56.224-56.074z"/><path d="m371.66 55.412c-9.523-2.431-19.227 5.093-19.227 14.933 0 10.751-3.918 21.112-11.027 29.169l-20.664 23.383c-1.338-2.053-3.65-3.412-6.283-3.412h-40.34c-4.143 0-7.5 3.358-7.5 7.5v90.765c0 4.142 3.357 7.5 7.5 7.5h40.34c3.031 0 5.635-1.801 6.818-4.387 8.167 4.99 17.631 7.688 27.26 7.688h71.292c10.894 0 19.881-9.453 19.37-20.319-.227-4.812.021-69.425.021-70.86 0-10.692-8.699-19.392-19.369-19.392l-37.073-.111 1.535-3.635c7.015-16.613 5.86-35.877-3.086-51.534-2.088-3.658-5.487-6.245-9.567-7.288-4.082-1.042 4.08 1.043 0 0-9.522-2.431 4.08 1.043 0 0zm-64.701 154.838h-25.34v-75.765h25.34zm112.87-77.271c2.422 0 4.392 1.97 4.392 4.392 0 1.427-.015 5.3-.035 10.551-.111 28.992-.185 56.45.029 61.014.078 1.647-.723 2.745-1.207 3.253-.838.878-1.967 1.361-3.179 1.361h-71.292c-8.498 0-16.815-2.945-23.421-8.292l-3.157-2.556v-58.531l30.691-34.729c9.533-10.804 14.783-24.689 14.783-39.098 0-.424.579-.534.771-.204 6.642 11.623 7.498 25.924 2.291 38.257l-5.919 14.019c-.977 2.313-.731 4.96.652 7.054 1.385 2.094 3.725 3.356 6.234 3.364z"/><path d="m79.951 260.498c-4.143 0-7.5 3.358-7.5 7.5s3.357 7.5 7.5 7.5h22.108l-4.13 24.979c-.676 4.086 2.09 7.947 6.176 8.623.415.069.826.102 1.232.102 3.604 0 6.783-2.605 7.391-6.278l4.534-27.425h18.093l-4.13 24.979c-.676 4.086 2.09 7.947 6.176 8.623.415.069.826.102 1.232.102 3.604 0 6.783-2.605 7.391-6.278l4.534-27.425h30.093c4.143 0 7.5-3.358 7.5-7.5s-3.357-7.5-7.5-7.5h-27.613l3.025-18.296h24.588c4.143 0 7.5-3.358 7.5-7.5s-3.357-7.5-7.5-7.5h-22.108l4.13-24.979c.676-4.086-2.09-7.947-6.176-8.623-4.091-.678-7.947 2.09-8.623 6.176l-4.534 27.425h-18.093l4.13-24.979c.676-4.086-2.09-7.947-6.176-8.623-4.096-.678-7.946 2.09-8.623 6.176l-4.534 27.425h-30.093c-4.143 0-7.5 3.358-7.5 7.5s3.357 7.5 7.5 7.5h27.613l-3.025 18.296zm42.817-18.296h18.093l-3.025 18.296h-18.093z"/><path d="m262.89 374.196c-6.056-4.986-14.113-6.953-22.195-4.988-10.357 2.515-20.808 12.197-20.808 28.156 0 9.933 3.625 18.555 11.082 26.359 6.091 6.375 14.881 12.437 28.499 19.657 1.099.583 2.306.874 3.513.874s2.414-.291 3.513-.874c23.758-12.595 39.58-25.24 39.58-46.016 0-16.046-10.822-25.629-21.548-28.008-8.058-1.788-15.87.11-21.636 4.84zm28.183 23.168c0 11.206-7.433 19.493-28.093 30.866-20.66-11.374-28.094-19.661-28.094-30.866 0-8.338 4.828-12.482 9.347-13.58.833-.202 1.725-.316 2.642-.316 3.399 0 7.136 1.57 9.44 6.037 1.313 2.542 3.967 4.118 6.814 4.059 2.859-.057 5.438-1.735 6.647-4.327 2.427-5.202 7.531-6.117 11.499-5.236 4.738 1.049 9.798 5.112 9.798 13.363z"/></svg>

<svg width="512" height="512" viewBox="0 0 512 512" fill="none" xmlns="http://www.w3.org/2000/svg">
<g clip-path="url(#clip0)">
<path d="M237.336 269.04C245.363 274.841 255.233 278.261 265.906 278.261H357.199V322.528L415.069 278.261H440.035C466.948 278.261 488.765 256.511 488.765 229.68V56.0821C488.765 29.2512 466.948 7.5011 440.035 7.5011H265.906C238.993 7.5011 217.176 29.2512 217.176 56.0821V269.04H237.336Z" fill="#F7F3F1"/>
<path d="M440.035 7.5011H398.297C425.21 7.5011 447.027 29.2522 447.027 56.0821V229.68C447.027 256.511 425.21 278.261 398.297 278.261H373.332L357.199 290.601V322.528L415.07 278.261H440.035C466.948 278.261 488.765 256.511 488.765 229.68V56.0821C488.766 29.2522 466.949 7.5011 440.035 7.5011V7.5011Z" fill="#EBE1DC"/>
<path d="M315.421 207.053L320.444 211.118C328.407 217.564 338.343 221.082 348.587 221.082H419.889C426.648 221.082 432.091 215.443 431.769 208.613C431.468 202.216 431.783 143.959 431.783 137.391C431.783 130.823 426.458 125.497 419.889 125.497L371.539 125.351L377.459 111.331C383.61 96.7629 382.616 80.1585 374.77 66.4285C372.552 62.546 367.56 61.2718 363.751 63.6151C361.411 65.0553 359.985 67.6067 359.985 70.3551C359.985 82.9279 355.394 95.0677 347.076 104.495L316.245 139.381H305.006V207.052H315.421V207.053Z" fill="#FFD36C"/>
<path d="M310.608 217.781H278.055C275.903 217.781 274.158 216.037 274.158 213.885V130.899C274.158 128.747 275.902 127.002 278.055 127.002H310.608C312.761 127.002 314.505 128.747 314.505 130.899V213.885C314.504 216.036 312.76 217.781 310.608 217.781V217.781Z" fill="#79D8EB"/>
<path d="M237.405 356.038V180.831C237.405 159.673 220.201 142.521 198.977 142.521H61.661C40.4379 142.521 23.2324 159.673 23.2324 180.831V317.728C23.2324 338.886 40.4369 356.038 61.661 356.038H137.097V391.274L182.732 356.038H237.405Z" fill="#2ED2E3"/>
<path d="M198.979 142.521H144.562C165.786 142.521 182.991 159.673 182.991 180.831V356.038H237.408V180.831C237.407 159.673 220.202 142.521 198.979 142.521V142.521Z" fill="#00B6C8"/>
<path d="M311.742 328.045H214.296C199.235 328.045 187.025 340.217 187.025 355.232V452.38C187.025 467.396 199.235 479.567 214.296 479.567H267.829V504.573L300.215 479.568H311.742C326.804 479.568 339.013 467.397 339.013 452.381V355.233C339.012 340.218 326.803 328.045 311.742 328.045V328.045Z" fill="#FAE1DF"/>
<path d="M311.741 328.045H269.735C284.797 328.045 297.006 340.217 297.006 355.232V452.381C297.006 467.397 284.797 479.568 269.735 479.568H267.828V504.573L300.214 479.568H311.741C326.803 479.568 339.012 467.397 339.012 452.381V355.232C339.011 340.218 326.803 328.045 311.741 328.045V328.045Z" fill="#F0BFBC"/>
<path d="M263.018 436.816C286.467 424.385 298.616 413.808 298.616 397.422C298.616 374.819 270.928 369.168 263.018 386.121C253.977 368.604 227.42 374.82 227.42 397.422C227.42 413.808 239.569 424.384 263.018 436.816Z" fill="#F7F3F1"/>
<path d="M440.036 0H418.023C408.346 0 408.346 15.0022 418.023 15.0022H440.036C462.769 15.0022 481.265 33.4308 481.265 56.0821V229.679C481.265 252.331 462.77 270.76 440.036 270.76H415.069C413.422 270.76 411.821 271.302 410.512 272.303L364.699 307.346V278.261C364.699 274.119 361.341 270.76 357.198 270.76H265.905C258.429 270.76 251.243 268.787 244.907 265.035V180.831C244.907 165.059 236.873 151.124 224.675 142.88V56.0821C224.675 33.4308 243.17 15.0022 265.905 15.0022H371.016C380.691 15.0022 380.691 0 371.016 0H265.905C234.898 0 209.672 25.1586 209.672 56.0821V136.287C206.238 135.467 202.659 135.02 198.977 135.02H61.6611C36.3364 135.02 15.7324 155.57 15.7324 180.831V197.028C15.7324 206.704 30.7346 206.704 30.7346 197.028V180.831C30.7346 163.843 44.6076 150.022 61.6611 150.022H198.978C216.031 150.022 229.905 163.843 229.905 180.831V268.022C229.815 268.684 229.819 269.351 229.905 270.008V317.727C229.905 318.67 229.848 319.609 229.763 320.543H214.294C197.249 320.543 183.039 332.846 180.092 349.015C179.41 349.272 178.755 349.632 178.148 350.1L144.598 376.004V356.037C144.598 351.895 141.241 348.536 137.097 348.536H61.6611C44.6076 348.536 30.7346 334.715 30.7346 317.727V242.035C30.7346 232.36 15.7324 232.36 15.7324 242.035V317.728C15.7324 342.989 36.3364 363.54 61.6611 363.54H129.597V391.274C129.597 397.29 136.903 400.9 141.683 397.211L179.523 367.994V452.381C179.523 471.509 195.122 487.069 214.295 487.069H260.327V504.573C260.327 510.588 267.633 514.201 272.412 510.511L302.772 487.069H311.741C330.914 487.069 346.513 471.508 346.513 452.381V439.063C346.513 429.388 331.511 429.388 331.511 439.063V452.381C331.511 463.237 322.643 472.067 311.741 472.067H300.213C298.553 472.067 296.941 472.617 295.629 473.63L275.328 489.304V479.567C275.328 475.425 271.97 472.066 267.827 472.066H214.294C203.394 472.066 194.524 463.235 194.524 452.38V355.232C194.524 344.377 203.393 335.546 214.294 335.546H311.741C322.642 335.546 331.511 344.378 331.511 355.232V392.057C331.511 401.732 346.513 401.732 346.513 392.057V355.233C346.513 336.106 330.914 320.545 311.741 320.545H244.822C244.879 319.608 244.908 281.722 244.908 281.722C251.522 284.381 258.613 285.763 265.906 285.763H349.698V322.529C349.698 328.53 356.973 332.144 361.756 328.486L417.611 285.763H440.037C471.042 285.763 496.268 260.605 496.268 229.68V56.0821C496.267 25.1586 471.041 0 440.036 0V0Z" fill="#546A7B"/>
<path d="M371.714 55.4201C362.19 52.9887 352.485 60.5138 352.485 70.3552C352.485 81.1078 348.566 91.4703 341.456 99.5284L320.789 122.915C319.451 120.862 317.139 119.502 314.505 119.502H274.159C270.016 119.502 266.658 122.861 266.658 127.003V217.782C266.658 221.924 270.016 225.283 274.159 225.283H314.505C317.537 225.283 320.141 223.481 321.324 220.895C329.492 225.886 338.958 228.584 348.588 228.584H419.89C430.786 228.584 439.774 219.13 439.263 208.262C439.036 203.449 439.284 138.827 439.284 137.392C439.284 126.698 430.584 117.997 419.912 117.997L382.834 117.886L384.369 114.251C391.385 97.6352 390.23 78.3684 381.283 62.7091C379.194 59.0506 375.795 56.4632 371.714 55.4201C367.632 54.3779 375.795 56.4632 371.714 55.4201C362.191 52.9887 375.795 56.4632 371.714 55.4201V55.4201ZM307.004 210.28H281.66V134.504H307.004V210.28ZM419.89 132.998C422.313 132.998 424.283 134.969 424.283 137.391C424.283 138.818 424.268 142.692 424.248 147.943C424.137 176.94 424.063 204.402 424.277 208.966C424.355 210.614 423.554 211.712 423.07 212.22C422.232 213.098 421.103 213.581 419.89 213.581H348.588C340.089 213.581 331.771 210.635 325.164 205.288L322.006 202.731V144.192L352.702 109.458C362.236 98.6523 367.487 84.7653 367.487 70.3542C367.487 69.9302 368.066 69.8201 368.258 70.1502C374.901 81.7749 375.757 96.0779 370.549 108.413L364.629 122.434C363.652 124.747 363.898 127.394 365.281 129.489C366.667 131.583 369.007 132.845 371.516 132.853L419.89 132.998Z" fill="#546A7B"/>
<path d="M79.962 260.536C75.8184 260.536 72.4609 263.894 72.4609 268.037C72.4609 272.179 75.8184 275.538 79.962 275.538H102.073L97.9426 300.52C97.2665 304.607 100.033 308.469 104.12 309.145C104.535 309.214 104.946 309.247 105.352 309.247C108.956 309.247 112.136 306.641 112.744 302.968L117.278 275.539H135.374L131.243 300.521C130.567 304.608 133.334 308.47 137.42 309.146C137.835 309.215 138.246 309.248 138.653 309.248C142.257 309.248 145.436 306.642 146.045 302.969L150.579 275.54H180.677C184.82 275.54 188.178 272.181 188.178 268.039C188.178 263.896 184.82 260.538 180.677 260.538H153.06L156.085 242.239H180.677C184.82 242.239 188.178 238.881 188.178 234.738C188.178 230.595 184.82 227.237 180.677 227.237H158.565L162.696 202.254C163.372 198.168 160.606 194.306 156.519 193.63C152.427 192.952 148.571 195.72 147.895 199.807L143.36 227.236H125.265L129.395 202.253C130.071 198.167 127.305 194.305 123.218 193.629C119.122 192.951 115.271 195.719 114.594 199.806L110.059 227.235H79.962C75.8184 227.235 72.4609 230.593 72.4609 234.736C72.4609 238.879 75.8184 242.237 79.962 242.237H107.579L104.554 260.536H79.962ZM122.785 242.237H140.881L137.855 260.536H119.76L122.785 242.237Z" fill="#546A7B"/>
<path d="M262.927 374.25C256.87 369.263 248.812 367.296 240.729 369.261C230.37 371.777 219.918 381.46 219.918 397.421C219.918 407.356 223.543 415.979 231.002 423.784C237.093 430.16 245.885 436.223 259.505 443.444C260.604 444.027 261.811 444.318 263.018 444.318C264.225 444.318 265.433 444.027 266.532 443.444C290.293 430.847 306.117 418.2 306.117 397.421C306.117 381.373 295.294 371.789 284.566 369.409C276.507 367.621 268.694 369.519 262.927 374.25V374.25ZM291.114 397.421C291.114 408.629 283.68 416.917 263.017 428.292C242.354 416.916 234.919 408.628 234.919 397.421C234.919 389.082 239.748 384.938 244.267 383.839C245.101 383.637 245.993 383.523 246.91 383.523C250.309 383.523 254.047 385.094 256.351 389.561C257.664 392.104 260.319 393.68 263.166 393.621C266.026 393.564 268.605 391.886 269.814 389.293C272.242 384.091 277.346 383.175 281.315 384.057C286.054 385.106 291.114 389.169 291.114 397.421V397.421Z" fill="#546A7B"/>
</g>
<defs>
<clipPath id="clip0">
<rect width="512" height="512" fill="white"/>
</clipPath>
</defs>
</svg>
